X:5003
T:East Neuk of Fife
R:Reel
C:Trad.
O:Scotland
M:4/4
L:1/8
Q:1/4=160
K:Em
D2|"G"G2G2 G2Bc|dBGB dBGB|"Am"A2A2 "D"A2gf|"Em"e2ed efge|
"G"dcBA G2Bc|dBGB d2cB|"Am"ABcd "G"BcAB|"Em"G2E2 E2:|
|:dc|"G"B2G2 G2dc|B2G2 "Em"G2ed|"Am"c2A2 "D"A2fg|"Am"a2A2 A2Bc|
"G"d2G2 B2G2|"Em"gfge "G"d2cB|"Am"ABcd "G"BcAB|"Em"G2E2 "C"E2:|

